src/wp-content/themes/aquaban/assets/images/online-marker.svg

<svg width="28" height="40" viewBox="0 0 28 40" fill="none" xmlns="http://www.w3.org/2000/svg">
<path d="M13.7304 0H14.2632C16.6281 0.0515625 18.9781 0.735156 20.9843 1.99141C23.3179 3.43437 25.1851 5.61641 26.246 8.14688C27.3171 10.6687 27.5429 13.5188 26.9835 16.1938C26.6038 18.0164 25.8109 19.7281 24.8304 21.3023C23.7882 22.9875 22.5796 24.5617 21.3609 26.1219C20.5109 27.2219 19.6484 28.3125 18.796 29.4102C20.596 29.6883 22.3929 30.1063 24.0531 30.875C25.0023 31.3195 25.9281 31.8875 26.5945 32.7133C27.0937 33.3266 27.3835 34.1398 27.2468 34.9328C27.1046 35.8289 26.4999 36.5711 25.8093 37.1227C24.7757 37.9406 23.5413 38.457 22.296 38.8586C19.8288 39.6344 17.2367 39.9258 14.6593 40H13.3468C11.5468 39.9477 9.74525 39.7938 7.97807 39.4359C6.48431 39.1328 5.0015 38.7102 3.63275 38.0297C2.76869 37.5898 1.93041 37.0367 1.33744 36.2562C0.896034 35.6805 0.64369 34.9406 0.739784 34.2125C0.834315 33.4172 1.31322 32.7242 1.89057 32.1937C2.73275 31.4242 3.77103 30.9109 4.82885 30.5055C6.24057 29.9688 7.72338 29.6414 9.21322 29.4086C7.58666 27.3062 5.90228 25.2484 4.3515 23.0891C2.90307 21.0531 1.59057 18.8477 1.04916 16.3812C0.451503 13.6711 0.654628 10.7703 1.73041 8.20312C2.78588 5.64922 4.664 3.44609 7.014 1.99297C9.02025 0.739844 11.3671 0.0546875 13.7304 0ZM5.99682 4.73203C4.13744 6.46406 2.86322 8.81484 2.44682 11.3234C2.09603 13.4586 2.29994 15.6906 3.08197 17.7117C3.61713 19.1141 4.39916 20.4047 5.24291 21.6398C6.70697 23.7516 8.34135 25.7359 9.914 27.7648C11.3101 29.5469 12.6734 31.3531 14.0007 33.1859C15.8163 30.6742 17.7273 28.2336 19.6374 25.7938C20.9023 24.1789 22.1679 22.5602 23.2757 20.832C24.3663 19.1258 25.257 17.25 25.5656 15.2328C25.9234 12.993 25.6499 10.6477 24.7273 8.57109C23.7007 6.23359 21.8898 4.25156 19.6531 3.02109C17.6593 1.90937 15.3328 1.41562 13.0593 1.60234C10.4398 1.80313 7.90775 2.93125 5.99682 4.73203ZM4.91244 32.1672C4.12025 32.5164 3.32807 32.9305 2.72728 33.5687C2.40775 33.9086 2.16869 34.4008 2.33744 34.8695C2.56322 35.4992 3.12885 35.9211 3.6726 36.2664C5.11088 37.132 6.75541 37.575 8.3851 37.9148C12.1382 38.6234 16.0304 38.6133 19.7796 37.8836C21.3531 37.543 22.9374 37.107 24.3257 36.268C24.8742 35.918 25.4476 35.4914 25.6671 34.8516C25.8374 34.3484 25.5468 33.8391 25.1992 33.4914C24.4718 32.7695 23.5234 32.332 22.582 31.9617C21.0109 31.375 19.3546 31.043 17.6929 30.8398C16.7429 32.0969 15.7976 33.3586 14.8843 34.643C14.7023 34.8852 14.5413 35.1883 14.2273 35.275C13.8796 35.3914 13.4953 35.2141 13.3093 34.9102C12.3413 33.5312 11.3273 32.1852 10.3148 30.8383C8.47182 31.0672 6.63041 31.4437 4.91244 32.1672Z" fill="#222222"/>
<path d="M13.7982 3.1757C14.3373 2.94679 14.974 3.48663 14.8349 4.05538C14.7506 4.62335 13.9826 4.89054 13.5638 4.49835C13.1131 4.14757 13.2545 3.3507 13.7982 3.1757Z" fill="#222222"/>
<path d="M16.9155 3.70932C17.0733 3.65854 17.246 3.66557 17.403 3.7187C19.578 4.47495 21.4639 6.01401 22.66 7.97886C23.6475 9.58745 24.1764 11.4773 24.1522 13.3656C24.1616 13.8414 23.6639 14.2335 23.2038 14.1117C22.8295 14.0351 22.5647 13.6601 22.5936 13.2828C22.5983 11.2164 21.8264 9.16089 20.4577 7.61245C19.5069 6.52495 18.2749 5.68667 16.9147 5.19917C16.6272 5.10698 16.4014 4.8437 16.3725 4.54057C16.3256 4.18042 16.567 3.81167 16.9155 3.70932Z" fill="#222222"/>
<path d="M13.1781 7.87418C14.2312 7.71481 15.3304 7.86793 16.296 8.3195C17.4429 8.84918 18.3937 9.78981 18.9359 10.9304C19.4359 11.9703 19.589 13.1711 19.371 14.3039C19.1249 15.6281 18.3609 16.8445 17.2827 17.6507C15.657 18.9054 13.307 19.1023 11.4937 18.1398C10.3351 17.5437 9.40384 16.5203 8.92181 15.3093C8.43197 14.0976 8.40306 12.7078 8.83743 11.4757C9.47806 9.5984 11.2132 8.15465 13.1781 7.87418ZM13.3398 9.43356C11.8445 9.67262 10.5617 10.8656 10.2117 12.3382C9.93665 13.4234 10.1593 14.6226 10.8124 15.5328C11.4671 16.4656 12.546 17.0882 13.6851 17.1718C14.9234 17.282 16.1929 16.7484 16.9859 15.7922C17.6804 14.975 18.0109 13.8632 17.8726 12.8C17.7374 11.6468 17.0499 10.5781 16.0632 9.96872C15.2617 9.46325 14.2726 9.27184 13.3398 9.43356Z" fill="#222222"/>
<path d="M5.99689 4.732C7.90783 2.93122 10.4399 1.80309 13.0594 1.60231C15.3328 1.41559 17.6594 1.90934 19.6531 3.02106C21.8899 4.25153 23.7008 6.23356 24.7274 8.57106C25.65 10.6476 25.9235 12.9929 25.5656 15.2328C25.257 17.25 24.3664 19.1257 23.2758 20.832C22.168 22.5601 20.9024 24.1789 19.6375 25.7937C17.7274 28.2336 15.8164 30.6742 14.0008 33.1859C12.6735 31.3531 11.3102 29.5468 9.91408 27.7648C8.34142 25.7359 6.70705 23.7515 5.24298 21.6398C4.39923 20.4047 3.6172 19.114 3.08205 17.7117C2.30002 15.6906 2.09611 13.4586 2.44689 11.3234C2.8633 8.81481 4.13752 6.46403 5.99689 4.732ZM13.7985 3.17575C13.2547 3.35075 13.1133 4.14762 13.5641 4.4984C13.9828 4.89059 14.7508 4.6234 14.8352 4.05543C14.9742 3.48668 14.3375 2.94684 13.7985 3.17575ZM16.9156 3.70934C16.5672 3.81168 16.3258 4.18043 16.3727 4.54059C16.4016 4.84372 16.6274 5.107 16.9149 5.19919C18.275 5.68669 19.507 6.52497 20.4578 7.61247C21.8266 9.1609 22.5985 11.2164 22.5938 13.2828C22.5649 13.6601 22.8297 14.0351 23.2039 14.1117C23.6641 14.2336 24.1617 13.8414 24.1524 13.3656C24.1766 11.4773 23.6477 9.58747 22.6602 7.97887C21.4641 6.01403 19.5781 4.47497 17.4031 3.71872C17.2461 3.66559 17.0735 3.65856 16.9156 3.70934ZM13.1781 7.87418C11.2133 8.15465 9.47814 9.5984 8.83752 11.4757C8.40314 12.7078 8.43205 14.0976 8.92189 15.3093C9.40392 16.5203 10.3352 17.5437 11.4938 18.1398C13.307 19.1023 15.657 18.9054 17.2828 17.6507C18.361 16.8445 19.125 15.6281 19.3711 14.3039C19.5891 13.1711 19.436 11.9703 18.936 10.9304C18.3938 9.78981 17.443 8.84918 16.2961 8.3195C15.3305 7.86793 14.2313 7.71481 13.1781 7.87418Z" fill="#00AFEA"/>
<path d="M4.91244 32.1673C6.63041 31.4438 8.47182 31.0673 10.3148 30.8384C11.3273 32.1853 12.3413 33.5313 13.3093 34.9103C13.4953 35.2142 13.8796 35.3915 14.2273 35.2751C14.5414 35.1884 14.7023 34.8853 14.8843 34.6431C15.7976 33.3587 16.7429 32.097 17.6929 30.8399C19.3546 31.0431 21.0109 31.3751 22.582 31.9618C23.5234 32.3321 24.4718 32.7696 25.1992 33.4915C25.5468 33.8392 25.8374 34.3485 25.6671 34.8517C25.4476 35.4915 24.8742 35.9181 24.3257 36.2681C22.9374 37.1071 21.3531 37.5431 19.7796 37.8837C16.0304 38.6134 12.1382 38.6235 8.3851 37.9149C6.75541 37.5751 5.11088 37.1321 3.6726 36.2665C3.12885 35.9212 2.56323 35.4993 2.33744 34.8696C2.16869 34.4009 2.40776 33.9087 2.72729 33.5688C3.32807 32.9306 4.12026 32.5165 4.91244 32.1673Z" fill="#F89C1C"/>
</svg>

<svg width="28" height="40" fill="none" xmlns="http://www.w3.org/2000/svg"><path d="M13.73 0h.533c2.365.052 4.715.735 6.721 1.991a13.371 13.371 0 015.262 6.156c1.071 2.522 1.297 5.372.738 8.047-.38 1.822-1.173 3.534-2.154 5.108-1.042 1.686-2.25 3.26-3.47 4.82-.85 1.1-1.712 2.19-2.564 3.288 1.8.278 3.597.696 5.257 1.465.95.445 1.875 1.012 2.541 1.838.5.614.79 1.427.653 2.22-.142.896-.747 1.638-1.438 2.19-1.033.818-2.268 1.334-3.513 1.736-2.467.775-5.06 1.067-7.637 1.141h-1.312c-1.8-.052-3.602-.206-5.369-.564-1.494-.303-2.976-.726-4.345-1.406-.864-.44-1.703-.993-2.296-1.774-.441-.575-.693-1.315-.597-2.044.094-.795.573-1.488 1.15-2.018.843-.77 1.881-1.283 2.939-1.689 1.412-.536 2.894-.864 4.384-1.096-1.626-2.103-3.31-4.16-4.861-6.32-1.449-2.036-2.761-4.241-3.303-6.708-.597-2.71-.394-5.61.681-8.178a13.36 13.36 0 015.284-6.21A13.318 13.318 0 0113.73 0zM5.997 4.732a11.709 11.709 0 00-3.55 6.591c-.351 2.136-.147 4.368.635 6.389.535 1.402 1.317 2.693 2.16 3.928 1.465 2.112 3.1 4.096 4.672 6.125a179.79 179.79 0 014.087 5.42c1.815-2.51 3.726-4.951 5.636-7.391 1.265-1.615 2.53-3.234 3.639-4.962 1.09-1.706 1.981-3.582 2.29-5.6.357-2.239.084-4.584-.839-6.66a11.8 11.8 0 00-5.074-5.55 11.666 11.666 0 00-6.594-1.42 11.699 11.699 0 00-7.062 3.13zM4.912 32.167c-.792.35-1.584.764-2.185 1.402-.32.34-.558.832-.39 1.3.226.63.792 1.052 1.336 1.397 1.438.866 3.082 1.309 4.712 1.649a30.36 30.36 0 0011.395-.031c1.573-.341 3.157-.777 4.546-1.616.548-.35 1.122-.777 1.341-1.416.17-.504-.12-1.013-.468-1.36-.727-.722-1.676-1.16-2.617-1.53-1.571-.587-3.227-.919-4.89-1.122a162.904 162.904 0 00-2.808 3.803c-.182.242-.343.545-.657.632-.347.116-.732-.06-.918-.365-.968-1.379-1.982-2.725-2.994-4.072-1.843.23-3.685.606-5.403 1.33z" fill="#222"/><path d="M13.798 3.176c.54-.23 1.176.31 1.037.88-.084.567-.852.835-1.271.442-.45-.35-.31-1.147.234-1.322zm3.118.534a.782.782 0 01.487.009 10.104 10.104 0 015.257 4.26 10.119 10.119 0 011.492 5.387c.01.475-.488.867-.948.746-.375-.077-.64-.452-.61-.83a8.613 8.613 0 00-2.136-5.67A8.57 8.57 0 0016.915 5.2a.79.79 0 01-.543-.658.785.785 0 01.544-.832zm-3.738 4.164a5.473 5.473 0 015.758 3.056 5.463 5.463 0 01-1.653 6.72c-1.626 1.255-3.976 1.452-5.79.49a5.504 5.504 0 01-2.571-2.83 5.475 5.475 0 01-.085-3.834c.641-1.878 2.376-3.321 4.341-3.602zm.162 1.56c-1.495.239-2.778 1.432-3.128 2.904a3.906 3.906 0 003.473 4.834 3.908 3.908 0 004.188-4.372 3.904 3.904 0 00-4.533-3.366z" fill="#222"/><path d="M5.997 4.732a11.695 11.695 0 017.062-3.13c2.274-.186 4.6.307 6.594 1.42a11.8 11.8 0 015.074 5.55c.923 2.076 1.197 4.42.839 6.66-.309 2.018-1.2 3.894-2.29 5.6-1.108 1.728-2.374 3.347-3.639 4.962-1.91 2.44-3.82 4.88-5.636 7.392a179.63 179.63 0 00-4.087-5.421c-1.573-2.03-3.207-4.014-4.671-6.125-.844-1.235-1.626-2.526-2.161-3.928-.782-2.021-.986-4.253-.635-6.389a11.709 11.709 0 013.55-6.591zm7.802-1.556c-.544.175-.686.972-.235 1.322.419.393 1.187.125 1.271-.443.14-.568-.498-1.108-1.037-.88zm3.117.533a.785.785 0 00-.543.832.79.79 0 00.542.658 8.57 8.57 0 013.543 2.413 8.612 8.612 0 012.136 5.67c-.03.378.236.753.61.83.46.122.958-.27.948-.746a10.119 10.119 0 00-1.492-5.387 10.105 10.105 0 00-5.257-4.26.782.782 0 00-.487-.01zm-3.738 4.165c-1.965.28-3.7 1.724-4.34 3.602a5.475 5.475 0 00.084 3.833 5.504 5.504 0 002.572 2.83c1.813.963 4.163.766 5.789-.488a5.463 5.463 0 00-.987-9.331 5.473 5.473 0 00-3.118-.446z" fill="#00AFEA"/><path d="M4.912 32.167c1.718-.723 3.56-1.1 5.403-1.329 1.012 1.347 2.026 2.693 2.994 4.072.186.304.57.482.918.365.314-.087.475-.39.657-.632a162.904 162.904 0 012.809-3.803c1.662.203 3.318.535 4.889 1.122.941.37 1.89.808 2.617 1.53.348.347.638.857.468 1.36-.22.64-.793 1.066-1.341 1.416-1.389.84-2.973 1.275-4.546 1.616-3.75.73-7.642.74-11.395.03-1.63-.339-3.274-.782-4.712-1.648-.544-.345-1.11-.767-1.336-1.396-.168-.47.07-.961.39-1.301.601-.638 1.393-1.053 2.185-1.402z" fill="#F89C1C"/></svg>
